;START_OF_HEADER
;HEADER_VERSION:0.1
;FLAVOR:Griffin
;GENERATOR.NAME:Cura_SteamEngine
;GENERATOR.VERSION:5.5.0
;GENERATOR.BUILD_DATE:2023-10-25
;TARGET_MACHINE.NAME:Ultimaker 3 Extended
;EXTRUDER_TRAIN.0.INITIAL_TEMPERATURE:200
;EXTRUDER_TRAIN.0.MATERIAL.VOLUME_USED:12133
;EXTRUDER_TRAIN.0.MATERIAL.GUID:506c9f0d-e3aa-4bd4-b2d2-23e2425b1aa9
;EXTRUDER_TRAIN.0.NOZZLE.DIAMETER:0.4
;EXTRUDER_TRAIN.0.NOZZLE.NAME:AA 0.4
;BUILD_PLATE.INITIAL_TEMPERATURE:60
;PRINT.TIME:7680
;PRINT.GROUPS:1
;PRINT.SIZE.MIN.X:9
;PRINT.SIZE.MIN.Y:6
;PRINT.SIZE.MIN.Z:0.2
;PRINT.SIZE.MAX.X:162.985
;PRINT.SIZE.MAX.Y:158.985
;PRINT.SIZE.MAX.Z:7
;SLICE_UUID:854074ef-7922-4723-96cf-c208076919b9
;END_OF_HEADER
;Generated with Cura_SteamEngine 5.5.0
T0
M82 ;absolute extrusion mode

G92 E0
M190 S60
M109 S200
G0 F15000 X9 Y6 Z2
G280
G1 F1500 E-6.5
;LAYER_COUNT:46
;LAYER:0
M106 S255
M204 S1000
M205 X20 Y20
G1 F600 Z2.2
G0 F15000 X72.729 Y59.173 Z2.2
;TYPE:SKIRT
G1 F600 Z0.2
G1 F1500 E0
G1 F1350 X73.53 Y58.415 E0.01383
G1 X74.991 Y57.335 E0.03661
G1 X76.773 Y56.572 E0.06092
G1 X78.285 Y56.184 E0.0805
G1 X80.002 Y56.015 E0.10213
G1 X153.723 Y56.058 E1.02662
G1 X154.757 Y56.187 E1.03969
G1 X156.718 Y56.752 E1.06528
G1 X158.202 Y57.437 E1.08578
G1 X159.776 Y58.689 E1.111
G1 X160.726 Y59.701 E1.12841
G1 X161.565 Y60.904 E1.1468
G1 X162.353 Y62.5 E1.16912
G1 X162.795 Y64.164 E1.19071
G1 X162.985 Y65.999 E1.21385
G1 X162.928 Y149.902 E2.26602
G1 X162.726 Y151.192 E2.28239
G1 X162.351 Y152.459 E2.29896
G1 X161.576 Y154.1 E2.32172
G1 X160.271 Y155.827 E2.34887
G1 X159.47 Y156.585 E2.3627
G1 X158.009 Y157.665 E2.38548
G1 X156.227 Y158.428 E2.40979
G1 X154.715 Y158.816 E2.42937
G1 X152.998 Y158.985 E2.451
G1 X79.173 Y158.934 E3.3768
G1 X77.814 Y158.729 E3.39403
G1 X76.655 Y158.391 E3.40917
G1 X74.789 Y157.563 E3.43477
G1 X73.239 Y156.326 E3.45964
G1 X72.192 Y155.196 E3.47896
G1 X71.304 Y153.886 E3.4988
G1 X70.678 Y152.652 E3.51616
G1 X70.113 Y150.479 E3.54431
G1 X70.015 Y149.001 E3.56289
G1 X70.072 Y65.098 E4.61506
G1 X70.274 Y63.808 E4.63144
G1 X70.649 Y62.541 E4.64801
G1 X71.424 Y60.9 E4.67077
G1 X72.729 Y59.173 E4.69791
G0 F15000 X73.005 Y59.463
G1 F1350 X73.768 Y58.737 E4.71112
G1 X75.194 Y57.683 E4.73336
G1 X76.874 Y56.959 E4.7563
G1 X78.325 Y56.582 E4.7751
G1 X80.002 Y56.415 E4.79623
G1 X153.673 Y56.455 E5.72009
G1 X154.707 Y56.584 E5.73316
G1 X156.55 Y57.115 E5.75721
G1 X157.99 Y57.78 E5.7771
G1 X159.484 Y58.963 E5.801
G1 X160.434 Y59.975 E5.81841
G1 X161.206 Y61.081 E5.83532
G1 X161.976 Y62.64 E5.85713
G1 X162.408 Y64.267 E5.87824
G1 X162.585 Y65.999 E5.90007
G1 X162.533 Y149.841 E6.95148
G1 X162.342 Y151.078 E6.96718
G1 X161.967 Y152.345 E6.98375
G1 X161.234 Y153.89 E7.00519
G1 X159.995 Y155.537 E7.03104
G1 X159.232 Y156.263 E7.04424
G1 X157.806 Y157.317 E7.06648
G1 X156.126 Y158.041 E7.08942
G1 X154.675 Y158.418 E7.10822
G1 X152.998 Y158.585 E7.12936
G1 X79.173 Y158.534 E8.05515
G1 X77.925 Y158.345 E8.07098
G1 X76.817 Y158.025 E8.08544
G1 X74.997 Y157.218 E8.11041
G1 X73.532 Y156.053 E8.13388
G1 X72.523 Y154.971 E8.15243
G1 X71.661 Y153.705 E8.17164
G1 X71.054 Y152.508 E8.18847
G1 X70.51 Y150.415 E8.21559
G1 X70.415 Y149.001 E8.23336
G1 X70.467 Y65.159 E9.28477
G1 X70.658 Y63.922 E9.30047
G1 X71.033 Y62.655 E9.31704
G1 X71.766 Y61.11 E9.33848
G1 X73.005 Y59.463 E9.36433
G0 F15000 X73.282 Y59.752
G1 F1350 X74.006 Y59.059 E9.3769
G1 X75.396 Y58.031 E9.39858
G1 X76.976 Y57.346 E9.42017
G1 X78.365 Y56.98 E9.43819
G1 X80.002 Y56.815 E9.45882
G1 X153.623 Y56.852 E10.38205
G1 X154.657 Y56.981 E10.39512
G1 X156.382 Y57.478 E10.41763
G1 X157.779 Y58.123 E10.43693
G1 X159.192 Y59.237 E10.45949
G1 X160.142 Y60.249 E10.4769
G1 X160.847 Y61.258 E10.49233
G1 X161.599 Y62.78 E10.51362
G1 X162.021 Y64.37 E10.53425
G1 X162.185 Y65.999 E10.55478
G1 X162.138 Y149.781 E11.60544
G1 X161.958 Y150.964 E11.62045
G1 X161.583 Y152.231 E11.63702
G1 X160.89 Y153.681 E11.65717
G1 X159.718 Y155.248 E11.68171
G1 X158.994 Y155.941 E11.69428
G1 X157.604 Y156.969 E11.71596
G1 X156.024 Y157.654 E11.73755
G1 X154.635 Y158.02 E11.75557
G1 X152.998 Y158.185 E11.7762
G1 X79.232 Y158.138 E12.70125
G1 X78.035 Y157.96 E12.71643
G1 X76.979 Y157.659 E12.7302
G1 X75.206 Y156.873 E12.75452
G1 X73.824 Y155.779 E12.77662
G1 X72.853 Y154.745 E12.79441
G1 X72.018 Y153.524 E12.81296
G1 X71.429 Y152.363 E12.82929
G1 X70.907 Y150.352 E12.85534
G1 X70.815 Y149.001 E12.87232
G1 X70.862 Y65.219 E13.92298
G1 X71.042 Y64.036 E13.93799
G1 X71.417 Y62.769 E13.95456
G1 X72.11 Y61.319 E13.97471
G1 X73.282 Y59.752 E13.99925
G0 F15000 X73.56 Y60.04
G1 F1350 X74.244 Y59.381 E14.01116
G1 X75.597 Y58.38 E14.03227
G1 X77.078 Y57.733 E14.05253
G1 X78.467 Y57.367 E14.07055
G1 X80.002 Y57.215 E14.08989
G1 X153.573 Y57.249 E15.0125
G1 X154.607 Y57.378 E15.02557
G1 X156.214 Y57.841 E15.04654
G1 X157.567 Y58.466 E15.06523
G1 X158.9 Y59.511 E15.08647
G1 X159.85 Y60.523 E15.10387
G1 X160.488 Y61.435 E15.11783
G1 X161.222 Y62.92 E15.13861
G1 X161.634 Y64.473 E15.15875
G1 X161.785 Y65.999 E15.17798
G1 X161.742 Y149.722 E16.2279
G1 X161.574 Y150.85 E16.2422
G1 X161.199 Y152.117 E16.25877
G1 X160.548 Y153.47 E16.2776
G1 X159.44 Y154.96 E16.30089
G1 X158.756 Y155.619 E16.3128
G1 X157.403 Y156.62 E16.3339
G1 X155.922 Y157.267 E16.35417
G1 X154.533 Y157.633 E16.37218
G1 X152.998 Y157.785 E16.39153
G1 X79.29 Y157.742 E17.31585
G1 X78.145 Y157.575 E17.33036
G1 X77.089 Y157.274 E17.34413
G1 X75.416 Y156.529 E17.3671
G1 X74.115 Y155.504 E17.38787
G1 X73.183 Y154.518 E17.40489
G1 X72.375 Y153.343 E17.42277
G1 X71.805 Y152.219 E17.43857
G1 X71.303 Y150.287 E17.46361
G1 X71.215 Y149.001 E17.47977
G1 X71.258 Y65.278 E18.52969
G1 X71.426 Y64.15 E18.54399
G1 X71.801 Y62.883 E18.56056
G1 X72.452 Y61.53 E18.57939
G1 X73.56 Y60.04 E18.60267
G0 F15000 X73.839 Y60.327
G1 F1350 X74.482 Y59.703 E18.61391
G1 X75.801 Y58.727 E18.63449
G1 X77.18 Y58.12 E18.65338
G1 X78.569 Y57.754 E18.67139
G1 X80.002 Y57.615 E18.68945
G1 X153.523 Y57.646 E19.61143
G1 X154.557 Y57.775 E19.6245
G1 X156.046 Y58.204 E19.64393
G1 X157.358 Y58.81 E19.66205
G1 X158.609 Y59.786 E19.68195
G1 X159.523 Y60.754 E19.69864
G1 X160.129 Y61.612 E19.71182
G1 X160.845 Y63.06 E19.73207
G1 X161.247 Y64.576 E19.75174
G1 X161.385 Y65.999 E19.76967
G1 X161.346 Y149.664 E20.81886
G1 X161.19 Y150.736 E20.83245
G1 X160.815 Y152.003 E20.84902
G1 X160.204 Y153.261 E20.86655
G1 X159.161 Y154.673 E20.88857
G1 X158.518 Y155.297 E20.8998
G1 X157.199 Y156.273 E20.92038
G1 X155.82 Y156.88 E20.93928
G1 X154.431 Y157.246 E20.95729
G1 X152.998 Y157.385 E20.97534
G1 X79.347 Y157.346 E21.89895
G1 X78.255 Y157.19 E21.91279
G1 X77.199 Y156.889 E21.92656
G1 X75.626 Y156.185 E21.94817
G1 X74.406 Y155.229 E21.96761
G1 X73.474 Y154.243 E21.98462
G1 X72.732 Y153.162 E22.00106
G1 X72.18 Y152.074 E22.01636
G1 X71.7 Y150.224 E22.04033
G1 X71.615 Y149.001 E22.0557
G1 X71.654 Y65.336 E23.10489
G1 X71.81 Y64.264 E23.11848
G1 X72.185 Y62.997 E23.13505
G1 X72.796 Y61.739 E23.15259
G1 X73.839 Y60.327 E23.1746
G0 F15000 X74.119 Y60.613
G1 F1350 X74.72 Y60.025 E23.18515
G1 X76.006 Y59.074 E23.2052
G1 X77.283 Y58.506 E23.22273
G1 X78.608 Y58.152 E23.23993
G1 X80.002 Y58.015 E23.25749
G1 X153.473 Y58.043 E24.17885
G1 X154.507 Y58.172 E24.19191
G1 X155.878 Y58.567 E24.20981
G1 X157.149 Y59.154 E24.22736
G1 X158.319 Y60.062 E24.24594
G1 X159.196 Y60.985 E24.2619
G1 X159.802 Y61.843 E24.27507
G1 X160.468 Y63.199 E24.29402
G1 X160.86 Y64.678 E24.31321
G1 X160.985 Y65.999 E24.32985
G1 X160.95 Y149.608 E25.37834
G1 X160.806 Y150.622 E25.39118
G1 X160.431 Y151.889 E25.40775
G1 X159.86 Y153.053 E25.42401
G1 X158.881 Y154.387 E25.44476
G1 X158.28 Y154.975 E25.4553
G1 X156.994 Y155.926 E25.47536
G1 X155.717 Y156.494 E25.49289
G1 X154.392 Y156.848 E25.51008
G1 X152.998 Y156.985 E25.52765
G1 X79.402 Y156.95 E26.45057
G1 X78.365 Y156.805 E26.4637
G1 X77.309 Y156.504 E26.47747
G1 X75.835 Y155.84 E26.49775
G1 X74.697 Y154.954 E26.51583
G1 X73.765 Y153.968 E26.53285
G1 X73.089 Y152.981 E26.54785
G1 X72.556 Y151.93 E26.56263
G1 X72.096 Y150.159 E26.58557
G1 X72.015 Y149.001 E26.60013
G1 X72.05 Y65.392 E27.64862
G1 X72.194 Y64.378 E27.66146
G1 X72.569 Y63.111 E27.67803
G1 X73.14 Y61.947 E27.69429
G1 X74.119 Y60.613 E27.71504
G0 F15000 X74.399 Y60.899
G1 F1350 X75 Y60.311 E27.72558
G1 X76.207 Y59.422 E27.74438
G1 X77.388 Y58.892 E27.76062
G1 X78.648 Y58.55 E27.77699
G1 X80.002 Y58.415 E27.79405
G1 X153.423 Y58.44 E28.71478
G1 X154.457 Y58.569 E28.72785
G1 X155.71 Y58.93 E28.7442
G1 X156.94 Y59.498 E28.76119
G1 X158.03 Y60.339 E28.77845
G1 X158.869 Y61.216 E28.79367
G1 X159.475 Y62.074 E28.80685
G1 X160.092 Y63.342 E28.82453
G1 X160.462 Y64.716 E28.84237
G1 X160.585 Y65.999 E28.85854
G1 X160.554 Y149.553 E29.90634
G1 X160.422 Y150.508 E29.91843
G1 X160.047 Y151.775 E29.935
G1 X159.502 Y152.875 E29.95039
G1 X158.601 Y154.101 E29.96947
G1 X158 Y154.689 E29.98001
G1 X156.793 Y155.578 E29.99881
G1 X155.612 Y156.108 E30.01505
G1 X154.352 Y156.45 E30.03142
G1 X152.998 Y156.585 E30.04848
G1 X79.456 Y156.554 E30.97073
G1 X78.475 Y156.42 E30.98314
G1 X77.419 Y156.119 E30.99691
G1 X76.047 Y155.497 E31.0158
G1 X74.988 Y154.679 E31.03258
G1 X74.056 Y153.693 E31.0496
G1 X73.446 Y152.8 E31.06316
G1 X72.932 Y151.786 E31.07742
G1 X72.492 Y150.094 E31.09934
G1 X72.415 Y149.001 E31.11308
G1 X72.446 Y65.447 E32.16088
G1 X72.578 Y64.492 E32.17297
G1 X72.953 Y63.225 E32.18954
G1 X73.498 Y62.125 E32.20493
G1 X74.399 Y60.899 E32.22401
G0 F15000 X74.679 Y61.185
G1 F1350 X75.28 Y60.597 E32.23456
G1 X76.411 Y59.768 E32.25214
G1 X77.495 Y59.278 E32.26706
G1 X78.688 Y58.948 E32.28258
G1 X80.002 Y58.815 E32.29915
G1 X153.373 Y58.837 E33.21925
G1 X154.407 Y58.966 E33.23231
G1 X155.542 Y59.293 E33.24713
G1 X156.731 Y59.842 E33.26355
G1 X157.786 Y60.656 E33.28026
G1 X158.542 Y61.447 E33.29398
G1 X159.148 Y62.305 E33.30715
G1 X159.706 Y63.448 E33.3231
G1 X160.064 Y64.755 E33.3401
G1 X160.185 Y65.999 E33.35577
G1 X160.157 Y149.5 E34.4029
G1 X160.038 Y150.394 E34.41421
G1 X159.663 Y151.661 E34.43078
G1 X159.144 Y152.696 E34.4453
G1 X158.321 Y153.815 E34.46272
G1 X157.72 Y154.403 E34.47327
G1 X156.589 Y155.232 E34.49085
G1 X155.505 Y155.722 E34.50577
G1 X154.312 Y156.052 E34.52129
G1 X152.998 Y156.185 E34.53786
G1 X79.508 Y156.157 E35.45945
G1 X78.585 Y156.035 E35.47112
G1 X77.529 Y155.734 E35.48489
G1 X76.257 Y155.153 E35.50243
G1 X75.233 Y154.362 E35.51866
G1 X74.348 Y153.419 E35.53487
G1 X73.803 Y152.619 E35.54701
G1 X73.308 Y151.642 E35.56075
G1 X72.888 Y150.029 E35.58165
G1 X72.815 Y149.001 E35.59457
G1 X72.843 Y65.5 E36.64171
G1 X72.962 Y64.606 E36.65302
G1 X73.337 Y63.339 E36.66959
G1 X73.856 Y62.304 E36.68411
G1 X74.679 Y61.185 E36.70153
G0 F15000 X74.96 Y61.47
G1 F1350 X75.517 Y60.92 E36.71134
G1 X76.616 Y60.114 E36.72843
G1 X77.602 Y59.664 E36.74203
G1 X78.795 Y59.334 E36.75755
G1 X80.002 Y59.215 E36.77276
G1 X153.323 Y59.234 E37.69223
G1 X154.357 Y59.363 E37.7053
G1 X155.374 Y59.656 E37.71857
G1 X156.522 Y60.186 E37.73443
G1 X157.542 Y60.973 E37.75058
G1 X158.215 Y61.678 E37.7628
G1 X158.821 Y62.536 E37.77598
G1 X159.33 Y63.59 E37.79066
G1 X159.666 Y64.794 E37.80633
G1 X159.785 Y65.999 E37.82152
G1 X159.76 Y149.447 E38.86798
G1 X159.641 Y150.341 E38.87929
G1 X159.28 Y151.546 E38.89507
G1 X158.821 Y152.46 E38.9079
G1 X158.04 Y153.53 E38.92451
G1 X157.483 Y154.08 E38.93432
G1 X156.384 Y154.886 E38.95142
G1 X155.398 Y155.336 E38.96501
G1 X154.205 Y155.666 E38.98053
G1 X152.998 Y155.785 E38.99574
G1 X79.56 Y155.76 E39.91668
G1 X78.637 Y155.638 E39.92835
G1 X77.695 Y155.37 E39.94064
G1 X76.467 Y154.809 E39.95757
G1 X75.478 Y154.045 E39.97324
G1 X74.678 Y153.192 E39.9879
G1 X74.16 Y152.438 E39.99938
G1 X73.684 Y151.498 E40.01259
G1 X73.284 Y149.964 E40.03247
G1 X73.215 Y149.001 E40.04458
G1 X73.24 Y65.553 E41.09105
G1 X73.359 Y64.659 E41.10236
G1 X73.72 Y63.454 E41.11813
G1 X74.179 Y62.54 E41.13096
G1 X74.96 Y61.47 E41.14757
G0 F15000 X75.243 Y61.753
G1 F1350 X75.754 Y61.242 E41.15663
G1 X76.818 Y60.461 E41.17318
G1 X77.768 Y60.028 E41.18627
G1 X78.835 Y59.732 E41.20016
G1 X80.002 Y59.615 E41.21487
G1 X153.273 Y59.631 E42.13371
G1 X154.307 Y59.76 E42.14678
G1 X155.206 Y60.019 E42.15851
G1 X156.316 Y60.531 E42.17384
G1 X157.254 Y61.25 E42.18866
G1 X157.888 Y61.909 E42.20013
G1 X158.494 Y62.767 E42.2133
G1 X158.969 Y63.762 E42.22713
G1 X159.268 Y64.834 E42.24109
G1 X159.385 Y65.999 E42.25577
G1 X159.363 Y149.394 E43.30157
G1 X159.244 Y150.288 E43.31288
G1 X158.922 Y151.368 E43.32702
G1 X158.497 Y152.225 E43.33901
G1 X157.757 Y153.247 E43.35484
G1 X157.246 Y153.758 E43.3639
G1 X156.182 Y154.539 E43.38045
G1 X155.232 Y154.972 E43.39354
G1 X154.165 Y155.268 E43.40743
G1 X152.998 Y155.385 E43.42214
G1 X79.612 Y155.363 E44.34242
G1 X78.689 Y155.241 E44.3541
G1 X77.861 Y155.006 E44.36489
G1 X76.675 Y154.464 E44.38125
G1 X75.722 Y153.728 E44.39635
G1 X75.008 Y152.965 E44.40945
G1 X74.49 Y152.211 E44.42092
G1 X74.06 Y151.356 E44.43292
G1 X73.68 Y149.899 E44.45181
G1 X73.615 Y149.001 E44.4631
G1 X73.637 Y65.606 E45.5089
G1 X73.756 Y64.712 E45.52021
G1 X74.078 Y63.632 E45.53434
G1 X74.503 Y62.775 E45.54634
G1 X75.243 Y61.753 E45.56216
G0 F15000 X75.567 Y61.988
G1 F1350 X76.035 Y61.527 E45.5704
G1 X77.021 Y60.808 E45.5857
G1 X77.934 Y60.392 E45.59829
G1 X78.876 Y60.13 E45.61055
G1 X80.002 Y60.015 E45.62474
G1 X153.225 Y60.028 E46.54299
G1 X154.198 Y60.145 E46.55528
G1 X155.038 Y60.382 E46.56622
G1 X156.106 Y60.875 E46.58097
G1 X156.967 Y61.529 E46.59453
G1 X157.561 Y62.14 E46.60522
G1 X158.167 Y62.998 E46.61839
G1 X158.607 Y63.932 E46.63134
G1 X158.87 Y64.875 E46.64361
G1 X158.985 Y65.999 E46.65778
G1 X158.966 Y149.341 E47.70292
G1 X158.847 Y150.235 E47.71423
G1 X158.539 Y151.252 E47.72756
G1 X158.173 Y151.99 E47.73789
G1 X157.433 Y153.012 E47.75371
G1 X156.965 Y153.473 E47.76195
G1 X155.979 Y154.192 E47.77725
G1 X155.066 Y154.608 E47.78983
G1 X154.124 Y154.87 E47.8021
G1 X152.998 Y154.985 E47.81629
G1 X79.664 Y154.966 E48.73593
G1 X78.741 Y154.844 E48.7476
G1 X78.027 Y154.642 E48.75691
G1 X76.884 Y154.12 E48.77266
G1 X76.013 Y153.453 E48.78642
G1 X75.338 Y152.738 E48.79875
G1 X74.82 Y151.984 E48.81022
G1 X74.437 Y151.215 E48.821
G1 X74.076 Y149.834 E48.8389
G1 X74.015 Y149.001 E48.84937
G1 X74.034 Y65.659 E49.89451
G1 X74.153 Y64.765 E49.90582
G1 X74.461 Y63.748 E49.91915
G1 X74.827 Y63.01 E49.92948
G1 X75.567 Y61.988 E49.9453
G0 F15000 X75.85 Y62.271
G1 F1350 X76.271 Y61.85 E49.95277
G1 X77.226 Y61.154 E49.96759
G1 X78.044 Y60.777 E49.97888
G1 X78.917 Y60.528 E49.99027
G1 X80.002 Y60.415 E50.00394
G1 X153.177 Y60.425 E50.92159
G1 X154.15 Y60.542 E50.93388
G1 X154.927 Y60.766 E50.94402
G1 X155.898 Y61.219 E50.95745
G1 X156.682 Y61.81 E50.96977
G1 X157.234 Y62.371 E50.97964
G1 X157.84 Y63.229 E50.99281
G1 X158.222 Y64.042 E51.00407
G1 X158.472 Y64.917 E51.01548
G1 X158.585 Y65.999 E51.02913
G1 X158.569 Y149.288 E52.0736
G1 X158.45 Y150.182 E52.08491
G1 X158.157 Y151.134 E52.0974
G1 X157.848 Y151.757 E52.10612
G1 X157.15 Y152.729 E52.12113
G1 X156.729 Y153.15 E52.1286
G1 X155.774 Y153.846 E52.14342
G1 X154.956 Y154.223 E52.15471
G1 X154.083 Y154.472 E52.1661
G1 X152.998 Y154.585 E52.17978
G1 X79.715 Y154.569 E53.09877
G1 X78.847 Y154.458 E53.10975
G1 X78.193 Y154.278 E53.11825
G1 X77.092 Y153.775 E53.13343
G1 X76.256 Y153.135 E53.14663
G1 X75.668 Y152.511 E53.15739
G1 X75.15 Y151.757 E53.16886
G1 X74.813 Y151.072 E53.17843
G1 X74.472 Y149.769 E53.19532
G1 X74.415 Y149.001 E53.20498
G1 X74.431 Y65.712 E54.24945
G1 X74.55 Y64.818 E54.26076
G1 X74.843 Y63.866 E54.27326
G1 X75.152 Y63.243 E54.28198
G1 X75.85 Y62.271 E54.29698
G0 F15000 X76.133 Y62.554
G1 F1350 X76.554 Y62.133 E54.30445
G1 X77.43 Y61.5 E54.318
G1 X78.154 Y61.162 E54.32802
G1 X79.027 Y60.913 E54.33941
G1 X80.002 Y60.815 E54.3517
G1 X153.129 Y60.822 E55.26873
G1 X154.102 Y60.939 E55.28102
G1 X154.758 Y61.129 E55.28959
G1 X155.695 Y61.566 E55.30255
G1 X156.399 Y62.092 E55.31358
G1 X156.909 Y62.604 E55.32264
G1 X157.479 Y63.401 E55.33493
G1 X157.837 Y64.152 E55.34536
G1 X158.087 Y65.027 E55.35677
G1 X158.185 Y65.999 E55.36902
G1 X158.172 Y149.235 E56.41283
G1 X158.053 Y150.129 E56.42414
