;START_OF_HEADER
;HEADER_VERSION:0.1
;FLAVOR:Griffin
;GENERATOR.NAME:Cura_SteamEngine
;GENERATOR.VERSION:5.5.0
;GENERATOR.BUILD_DATE:2023-10-25
;TARGET_MACHINE.NAME:Ultimaker 3 Extended
;EXTRUDER_TRAIN.0.INITIAL_TEMPERATURE:200
;EXTRUDER_TRAIN.0.MATERIAL.VOLUME_USED:54556
;EXTRUDER_TRAIN.0.MATERIAL.GUID:506c9f0d-e3aa-4bd4-b2d2-23e2425b1aa9
;EXTRUDER_TRAIN.0.NOZZLE.DIAMETER:0.4
;EXTRUDER_TRAIN.0.NOZZLE.NAME:AA 0.4
;BUILD_PLATE.INITIAL_TEMPERATURE:60
;PRINT.TIME:29369
;PRINT.GROUPS:1
;PRINT.SIZE.MIN.X:9
;PRINT.SIZE.MIN.Y:6
;PRINT.SIZE.MIN.Z:0.2
;PRINT.SIZE.MAX.X:209.942
;PRINT.SIZE.MAX.Y:158.985
;PRINT.SIZE.MAX.Z:34
;SLICE_UUID:595c7697-f0c8-447c-918d-c8a44db78eef
;END_OF_HEADER
;Generated with Cura_SteamEngine 5.5.0
T0
M82 ;absolute extrusion mode

G92 E0
M190 S60
M109 S200
G0 F15000 X9 Y6 Z2
G280
G1 F1500 E-6.5
;LAYER_COUNT:213
;LAYER:0
M106 S255
M204 S1000
M205 X20 Y20
G1 F600 Z2.2
G0 F15000 X23.32 Y56.716 Z2.2
;TYPE:SKIRT
G1 F600 Z0.2
G1 F1500 E0
G1 F1350 X25.207 Y56.162 E0.02466
G1 X27.093 Y56.015 E0.04839
G1 X100.395 Y56.024 E0.96762
G1 X101.99 Y56.158 E0.98769
G1 X103.956 Y56.752 E1.01345
G1 X105.693 Y57.693 E1.03822
G1 X107.166 Y58.908 E1.06217
G1 X108.451 Y60.467 E1.0875
G1 X109.355 Y62.176 E1.11175
G1 X109.946 Y64.17 E1.13783
G1 X110.076 Y65.999 E1.16082
G1 X110.041 Y149.714 E2.21064
G1 X109.908 Y150.996 E2.2268
G1 X109.31 Y152.922 E2.25209
G1 X108.404 Y154.592 E2.27592
G1 X107.085 Y156.188 E2.30188
G1 X105.289 Y157.514 E2.32988
G1 X104.022 Y158.227 E2.34811
G1 X101.959 Y158.844 E2.37511
G1 X100.089 Y158.985 E2.39863
G1 X26.369 Y158.947 E3.32311
G1 X25.075 Y158.778 E3.33947
G1 X23.312 Y158.282 E3.36244
G1 X21.473 Y157.293 E3.38862
G1 X20.029 Y156.099 E3.41212
G1 X18.721 Y154.509 E3.43794
G1 X17.822 Y152.809 E3.46206
G1 X17.244 Y150.86 E3.48755
G1 X17.106 Y149.001 E3.51093
G1 X17.141 Y65.262 E4.56104
G1 X17.275 Y64.029 E4.5766
G1 X17.865 Y62.103 E4.60186
G1 X18.803 Y60.381 E4.62645
G1 X20.079 Y58.853 E4.65141
G1 X21.562 Y57.655 E4.67532
G1 X23.32 Y56.716 E4.70031
G0 F15000 X23.471 Y57.089
G1 F1350 X25.28 Y56.558 E4.72396
G1 X27.093 Y56.415 E4.74676
G1 X100.361 Y56.423 E5.66557
G1 X101.916 Y56.554 E5.68514
G1 X103.8 Y57.123 E5.70982
G1 X105.47 Y58.028 E5.73364
G1 X106.879 Y59.19 E5.75654
G1 X108.117 Y60.691 E5.78094
G1 X108.984 Y62.331 E5.80421
G1 X109.55 Y64.24 E5.82918
G1 X109.676 Y65.999 E5.85129
G1 X109.643 Y149.673 E6.90059
G1 X109.514 Y150.915 E6.91625
G1 X108.94 Y152.764 E6.94053
G1 X108.069 Y154.37 E6.96344
G1 X106.807 Y155.896 E6.98828
G1 X105.093 Y157.165 E7.01502
G1 X103.863 Y157.857 E7.03272
G1 X101.887 Y158.448 E7.05858
G1 X100.089 Y158.585 E7.08119
G1 X26.421 Y158.55 E8.00502
G1 X25.127 Y158.381 E8.02138
G1 X23.462 Y157.909 E8.04309
G1 X21.697 Y156.959 E8.06822
G1 X20.314 Y155.816 E8.09072
G1 X19.057 Y154.288 E8.11553
G1 X18.193 Y152.654 E8.13871
G1 X17.64 Y150.79 E8.1631
G1 X17.506 Y149.001 E8.18559
G1 X17.539 Y65.305 E9.23517
G1 X17.669 Y64.106 E9.2503
G1 X18.235 Y62.259 E9.27452
G1 X19.135 Y60.607 E9.29811
G1 X20.361 Y59.139 E9.3221
G1 X21.782 Y57.991 E9.34501
G1 X23.471 Y57.089 E9.36902
G0 F15000 X23.622 Y57.462
G1 F1350 X25.353 Y56.954 E9.39164
G1 X27.093 Y56.815 E9.41353
G1 X100.327 Y56.822 E10.33191
G1 X101.842 Y56.95 E10.35098
G1 X103.646 Y57.495 E10.37461
G1 X105.245 Y58.361 E10.39742
G1 X106.595 Y59.474 E10.41936
G1 X107.781 Y60.913 E10.44274
G1 X108.613 Y62.486 E10.46506
G1 X109.154 Y64.31 E10.48892
G1 X109.276 Y65.999 E10.51015
G1 X109.245 Y149.632 E11.55894
G1 X109.12 Y150.834 E11.5741
G1 X108.57 Y152.606 E11.59736
G1 X107.734 Y154.148 E11.61936
G1 X106.529 Y155.604 E11.64306
G1 X104.897 Y156.816 E11.66855
G1 X103.704 Y157.487 E11.68572
G1 X101.815 Y158.052 E11.71044
G1 X100.089 Y158.185 E11.73215
G1 X26.471 Y158.153 E12.65535
G1 X25.236 Y157.996 E12.67096
G1 X23.613 Y157.536 E12.69212
G1 X21.921 Y156.625 E12.71621
G1 X20.599 Y155.533 E12.73772
G1 X19.393 Y154.067 E12.76152
G1 X18.566 Y152.503 E12.78371
G1 X18.036 Y150.715 E12.8071
G1 X17.906 Y149.001 E12.82865
G1 X17.937 Y65.348 E13.87769
G1 X18.063 Y64.183 E13.89239
G1 X18.605 Y62.415 E13.91558
G1 X19.467 Y60.833 E13.93817
G1 X20.643 Y59.425 E13.96117
G1 X22.002 Y58.327 E13.98308
G1 X23.622 Y57.462 E14.00611
G0 F15000 X23.773 Y57.835
G1 F1350 X25.426 Y57.35 E14.02772
G1 X27.093 Y57.215 E14.04869
G1 X100.293 Y57.221 E14.96664
G1 X101.768 Y57.346 E14.98521
G1 X103.49 Y57.866 E15.00777
G1 X105.022 Y58.696 E15.02962
G1 X106.308 Y59.756 E15.05052
G1 X107.447 Y61.137 E15.07296
G1 X108.242 Y62.641 E15.0943
G1 X108.758 Y64.38 E15.11704
G1 X108.876 Y65.999 E15.1374
G1 X108.847 Y149.591 E16.18568
G1 X108.726 Y150.753 E16.20033
G1 X108.2 Y152.448 E16.22258
G1 X107.399 Y153.926 E16.24366
G1 X106.253 Y155.311 E16.26621
G1 X104.701 Y156.467 E16.29048
G1 X103.545 Y157.117 E16.30711
G1 X101.743 Y157.656 E16.33069
G1 X100.089 Y157.785 E16.3515
G1 X26.52 Y157.756 E17.27408
G1 X25.345 Y157.611 E17.28893
G1 X23.764 Y157.163 E17.30953
G1 X22.145 Y156.291 E17.3326
G1 X20.884 Y155.25 E17.3531
G1 X19.729 Y153.846 E17.3759
G1 X18.937 Y152.348 E17.39715
G1 X18.432 Y150.645 E17.41942
G1 X18.306 Y149.001 E17.4401
G1 X18.335 Y65.391 E18.4886
G1 X18.457 Y64.26 E18.50287
G1 X18.975 Y62.571 E18.52502
G1 X19.799 Y61.059 E18.54662
G1 X20.925 Y59.711 E18.56864
G1 X22.222 Y58.663 E18.58955
G1 X23.773 Y57.835 E18.6116
G0 F15000 X23.924 Y58.208
G1 F1350 X25.499 Y57.746 E18.63218
G1 X27.093 Y57.615 E18.65224
G1 X100.259 Y57.62 E19.56977
G1 X101.694 Y57.742 E19.58783
G1 X103.334 Y58.237 E19.60931
G1 X104.799 Y59.031 E19.63021
G1 X106.024 Y60.041 E19.65012
G1 X107.111 Y61.358 E19.67153
G1 X107.869 Y62.792 E19.69187
G1 X108.362 Y64.455 E19.71363
G1 X108.476 Y65.999 E19.73304
G1 X108.449 Y149.55 E20.7808
G1 X108.332 Y150.672 E20.79495
G1 X107.83 Y152.29 E20.81619
G1 X107.064 Y153.704 E20.83636
G1 X105.974 Y155.021 E20.8578
G1 X104.505 Y156.118 E20.88079
G1 X103.386 Y156.747 E20.89689
G1 X101.671 Y157.26 E20.91934
G1 X100.089 Y157.385 E20.93924
G1 X26.567 Y157.359 E21.86123
G1 X25.454 Y157.226 E21.87529
G1 X23.915 Y156.79 E21.89535
G1 X22.372 Y155.959 E21.91732
G1 X21.166 Y154.964 E21.93693
G1 X20.065 Y153.625 E21.95867
G1 X19.308 Y152.193 E21.97898
G1 X18.828 Y150.575 E22.00015
G1 X18.706 Y149.001 E22.01994
G1 X18.733 Y65.434 E23.0679
G1 X18.851 Y64.337 E23.08174
G1 X19.345 Y62.727 E23.10286
G1 X20.131 Y61.285 E23.12345
G1 X21.207 Y59.997 E23.1445
G1 X22.442 Y58.999 E23.16441
G1 X23.924 Y58.208 E23.18548
G0 F15000 X24.075 Y58.581
G1 F1350 X25.572 Y58.142 E23.20504
G1 X27.093 Y58.015 E23.22418
G1 X100.225 Y58.019 E24.14129
G1 X101.62 Y58.138 E24.15884
G1 X103.178 Y58.608 E24.17925
G1 X104.576 Y59.366 E24.19919
G1 X105.74 Y60.325 E24.21811
G1 X106.775 Y61.58 E24.23851
G1 X107.498 Y62.947 E24.2579
G1 X107.966 Y64.525 E24.27854
G1 X108.076 Y65.999 E24.29708
G1 X108.051 Y149.509 E25.34432
G1 X107.938 Y150.593 E25.35799
G1 X107.461 Y152.131 E25.37818
G1 X106.729 Y153.482 E25.39745
G1 X105.697 Y154.729 E25.41775
G1 X104.309 Y155.769 E25.4395
G1 X103.227 Y156.377 E25.45506
G1 X101.599 Y156.864 E25.47637
G1 X100.089 Y156.985 E25.49537
G1 X26.613 Y156.962 E26.41679
G1 X25.563 Y156.841 E26.43004
G1 X24.066 Y156.417 E26.44955
G1 X22.596 Y155.625 E26.47049
G1 X21.45 Y154.68 E26.48912
G1 X20.401 Y153.404 E26.50983
G1 X19.681 Y152.042 E26.52915
G1 X19.224 Y150.5 E26.54932
G1 X19.106 Y149.001 E26.56818
G1 X19.131 Y65.477 E27.6156
G1 X19.245 Y64.414 E27.62901
G1 X19.714 Y62.885 E27.64906
G1 X20.463 Y61.512 E27.66868
G1 X21.492 Y60.281 E27.6888
G1 X22.662 Y59.335 E27.70767
G1 X24.075 Y58.581 E27.72775
G0 F15000 X24.227 Y58.953
G1 F1350 X25.644 Y58.538 E27.74627
G1 X27.093 Y58.415 E27.7645
G1 X100.191 Y58.418 E28.68118
G1 X101.546 Y58.534 E28.69823
G1 X103.024 Y58.98 E28.71759
G1 X104.352 Y59.699 E28.73653
G1 X105.456 Y60.609 E28.75447
G1 X106.439 Y61.802 E28.77386
G1 X107.127 Y63.102 E28.7923
G1 X107.57 Y64.595 E28.81183
G1 X107.676 Y65.999 E28.82949
G1 X107.653 Y149.468 E29.87622
G1 X107.544 Y150.514 E29.88941
G1 X107.092 Y151.972 E29.90855
G1 X106.394 Y153.26 E29.92692
G1 X105.42 Y154.437 E29.94608
G1 X104.113 Y155.42 E29.96659
G1 X103.068 Y156.007 E29.98162
G1 X101.527 Y156.468 E30.00179
G1 X100.089 Y156.585 E30.01988
G1 X26.613 Y156.562 E30.9413
G1 X25.672 Y156.456 E30.95318
G1 X24.217 Y156.044 E30.97214
G1 X22.823 Y155.293 E30.992
G1 X21.732 Y154.393 E31.00973
G1 X20.737 Y153.183 E31.02938
G1 X20.052 Y151.887 E31.04776
G1 X19.62 Y150.43 E31.06682
G1 X19.506 Y149.001 E31.08479
G1 X19.529 Y65.52 E32.13168
G1 X19.639 Y64.491 E32.14466
G1 X20.083 Y63.044 E32.16364
G1 X20.796 Y61.737 E32.18231
G1 X21.772 Y60.569 E32.20139
G1 X22.885 Y59.669 E32.21934
G1 X24.227 Y58.953 E32.23842
G0 F15000 X24.379 Y59.325
G1 F1350 X25.716 Y58.934 E32.25589
G1 X27.093 Y58.815 E32.27322
G1 X100.157 Y58.817 E33.18947
G1 X101.471 Y58.93 E33.20601
G1 X102.87 Y59.352 E33.22433
G1 X104.125 Y60.031 E33.24223
G1 X105.171 Y60.894 E33.25923
G1 X106.105 Y62.026 E33.27764
G1 X106.754 Y63.253 E33.29504
G1 X107.174 Y64.67 E33.31358
G1 X107.276 Y65.999 E33.33029
G1 X107.255 Y149.427 E34.37651
G1 X107.15 Y150.435 E34.38922
G1 X106.723 Y151.813 E34.40731
G1 X106.059 Y153.038 E34.42478
G1 X105.142 Y154.146 E34.44282
G1 X103.917 Y155.071 E34.46207
G1 X102.909 Y155.637 E34.47657
G1 X101.455 Y156.072 E34.4956
G1 X100.089 Y156.185 E34.51279
G1 X26.655 Y156.164 E35.43368
G1 X25.781 Y156.071 E35.4447
G1 X24.368 Y155.671 E35.46312
G1 X23.047 Y154.959 E35.48193
G1 X22.016 Y154.109 E35.49869
G1 X21.073 Y152.962 E35.51731
G1 X20.423 Y151.732 E35.53476
G1 X20.016 Y150.36 E35.5527
G1 X19.906 Y149.001 E35.5698
G1 X19.927 Y65.562 E36.61616
G1 X20.033 Y64.568 E36.62869
G1 X20.452 Y63.203 E36.6466
G1 X21.129 Y61.962 E36.66433
G1 X22.052 Y60.857 E36.68238
G1 X23.108 Y60.003 E36.69941
G1 X24.379 Y59.325 E36.71748
G0 F15000 X24.531 Y59.697
G1 F1350 X25.792 Y59.328 E36.73396
G1 X27.093 Y59.215 E36.75033
G1 X100.123 Y59.216 E37.66616
G1 X101.398 Y59.326 E37.6822
G1 X102.713 Y59.722 E37.69943
G1 X103.902 Y60.366 E37.71638
G1 X104.887 Y61.178 E37.73239
G1 X105.769 Y62.248 E37.74978
G1 X106.383 Y63.408 E37.76624
G1 X106.778 Y64.74 E37.78366
G1 X106.876 Y65.999 E37.7995
G1 X106.857 Y149.386 E38.8452
G1 X106.756 Y150.356 E38.85743
G1 X106.354 Y151.654 E38.87447
G1 X105.724 Y152.816 E38.89105
G1 X104.865 Y153.853 E38.90794
G1 X103.721 Y154.722 E38.92595
G1 X102.75 Y155.267 E38.93991
G1 X101.383 Y155.676 E38.95781
G1 X100.089 Y155.785 E38.97409
G1 X26.697 Y155.766 E39.89446
G1 X25.823 Y155.673 E39.90548
G1 X24.521 Y155.299 E39.92247
G1 X23.274 Y154.627 E39.94023
G1 X22.298 Y153.822 E39.9561
G1 X21.409 Y152.741 E39.97365
G1 X20.794 Y151.577 E39.99016
G1 X20.412 Y150.29 E40.00699
G1 X20.306 Y149.001 E40.02321
G1 X20.325 Y65.604 E41.06904
G1 X20.427 Y64.645 E41.08113
G1 X20.821 Y63.362 E41.09796
G1 X21.462 Y62.187 E41.11475
G1 X22.332 Y61.145 E41.13177
G1 X23.331 Y60.337 E41.14788
G1 X24.531 Y59.697 E41.16494
G0 F15000 X24.683 Y60.069
G1 F1350 X25.868 Y59.722 E41.18042
G1 X27.093 Y59.615 E41.19584
G1 X100.089 Y59.615 E42.11124
G1 X101.325 Y59.722 E42.1268
G1 X102.558 Y60.093 E42.14295
G1 X103.677 Y60.699 E42.1589
G1 X104.6 Y61.46 E42.17391
G1 X105.435 Y62.472 E42.19036
G1 X106.012 Y63.563 E42.20584
G1 X106.382 Y64.81 E42.22215
G1 X106.476 Y65.999 E42.23711
G1 X106.459 Y149.345 E43.2823
G1 X106.362 Y150.277 E43.29405
G1 X105.984 Y151.497 E43.31006
G1 X105.391 Y152.592 E43.32568
G1 X104.587 Y153.561 E43.34147
G1 X103.525 Y154.373 E43.35823
G1 X102.591 Y154.897 E43.37166
G1 X101.311 Y155.28 E43.38842
G1 X100.089 Y155.385 E43.4038
G1 X26.739 Y155.368 E44.32364
G1 X25.865 Y155.275 E44.33466
G1 X24.673 Y154.926 E44.35023
G1 X23.501 Y154.295 E44.36693
G1 X22.58 Y153.535 E44.3819
G1 X21.745 Y152.52 E44.39838
G1 X21.167 Y151.426 E44.4139
G1 X20.808 Y150.215 E44.42974
G1 X20.706 Y149.001 E44.44502
G1 X20.723 Y65.646 E45.49032
G1 X20.821 Y64.722 E45.50197
G1 X21.19 Y63.521 E45.51773
G1 X21.795 Y62.412 E45.53357
G1 X22.612 Y61.433 E45.54956
G1 X23.554 Y60.671 E45.56475
G1 X24.683 Y60.069 E45.5808
G0 F15000 X24.835 Y60.441
G1 F1350 X25.945 Y60.116 E45.5953
G1 X27.093 Y60.015 E45.60975
G1 X100.089 Y60.015 E46.52515
G1 X101.248 Y60.116 E46.53974
G1 X102.403 Y60.464 E46.55487
G1 X103.45 Y61.031 E46.5698
G1 X104.318 Y61.747 E46.58391
G1 X105.099 Y62.694 E46.5993
G1 X105.639 Y63.714 E46.61378
G1 X105.986 Y64.885 E46.62909
G1 X106.076 Y65.999 E46.64311
G1 X106.061 Y149.304 E47.68778
G1 X105.968 Y150.198 E47.69905
G1 X105.614 Y151.34 E47.71405
G1 X105.059 Y152.365 E47.72866
G1 X104.306 Y153.272 E47.74345
G1 X103.329 Y154.024 E47.75891
G1 X102.431 Y154.528 E47.77182
G1 X101.236 Y154.885 E47.78746
G1 X100.089 Y154.985 E47.8019
G1 X26.781 Y154.97 E48.72121
G1 X25.907 Y154.877 E48.73223
G1 X24.825 Y154.554 E48.74639
G1 X23.726 Y153.963 E48.76204
G1 X22.865 Y153.252 E48.77604
G1 X22.081 Y152.299 E48.79152
G1 X21.54 Y151.275 E48.80604
G1 X21.204 Y150.14 E48.82089
G1 X21.106 Y149.001 E48.83522
G1 X21.121 Y65.688 E49.88
G1 X21.215 Y64.801 E49.89118
G1 X21.561 Y63.676 E49.90594
G1 X22.127 Y62.638 E49.92077
G1 X22.892 Y61.721 E49.93575
G1 X23.777 Y61.005 E49.95002
G1 X24.835 Y60.441 E49.96506
G0 F15000 X24.987 Y60.813
G1 F1350 X26.022 Y60.51 E49.97858
G1 X27.093 Y60.415 E49.99207
G1 X100.089 Y60.415 E50.90746
G1 X101.171 Y60.51 E50.92108
G1 X102.246 Y60.834 E50.93516
G1 X103.227 Y61.366 E50.94916
G1 X104.031 Y62.029 E50.96223
G1 X104.765 Y62.919 E50.97669
G1 X105.268 Y63.869 E50.99017
G1 X105.59 Y64.955 E51.00438
G1 X105.676 Y65.999 E51.01751
G1 X105.663 Y149.263 E52.06168
G1 X105.574 Y150.119 E52.07247
G1 X105.245 Y151.181 E52.08641
G1 X104.724 Y152.142 E52.10012
G1 X104.027 Y152.982 E52.11381
G1 X103.133 Y153.675 E52.12799
G1 X102.272 Y154.158 E52.14037
G1 X101.159 Y154.491 E52.15494
G1 X100.089 Y154.585 E52.16841
G1 X26.823 Y154.572 E53.08719
G1 X25.984 Y154.483 E53.09777
G1 X24.977 Y154.182 E53.11095
G1 X23.951 Y153.631 E53.12556
G1 X23.15 Y152.969 E53.13859
G1 X22.417 Y152.078 E53.15306
G1 X21.913 Y151.124 E53.16659
G1 X21.598 Y150.06 E53.1805
G1 X21.506 Y149.001 E53.19383
G1 X21.519 Y65.73 E54.23808
G1 X21.609 Y64.88 E54.2488
G1 X21.932 Y63.831 E54.26257
G1 X22.459 Y62.864 E54.27638
G1 X23.172 Y62.009 E54.29034
G1 X24 Y61.339 E54.3037
G1 X24.987 Y60.813 E54.31772
G0 F15000 X25.139 Y61.185
G1 F1350 X26.098 Y60.904 E54.33025
G1 X27.093 Y60.815 E54.34278
G1 X100.089 Y60.815 E55.25818
G1 X101.092 Y60.904 E55.2708
G1 X102.09 Y61.205 E55.28388
G1 X103.004 Y61.701 E55.29692
G1 X103.747 Y62.313 E55.30899
G1 X104.429 Y63.141 E55.32244
G1 X104.897 Y64.025 E55.33498
G1 X105.194 Y65.025 E55.34807
G1 X105.276 Y65.999 E55.36032
G1 X105.265 Y149.222 E56.40397
G1 X105.18 Y150.04 E56.41428
G1 X104.875 Y151.024 E56.4272
G1 X104.391 Y151.918 E56.43995
G1 X103.747 Y152.694 E56.4526
G1 X102.937 Y153.326 E56.46548
G1 X102.112 Y153.789 E56.47735
G1 X101.084 Y154.096 E56.4908
G1 X100.089 Y154.185 E56.50333
G1 X26.865 Y154.174 E57.42158
G1 X26.061 Y154.089 E57.43172
G1 X25.129 Y153.81 E57.44392
G1 X24.18 Y153.3 E57.45743
G1 X23.432 Y152.683 E57.46959
G1 X22.753 Y151.857 E57.483
G1 X22.286 Y150.973 E57.49554
G1 X21.992 Y149.98 E57.50853
G1 X21.906 Y149.001 E57.52085
G1 X21.917 Y65.772 E58.56457
G1 X22.003 Y64.959 E58.57482
G1 X22.303 Y63.986 E58.58759
G1 X22.791 Y63.09 E58.60039
G1 X23.452 Y62.297 E58.61333
G1 X24.223 Y61.673 E58.62577
G1 X25.139 Y61.185 E58.63879
G0 F15000 X25.291 Y61.557
G1 F1350 X26.175 Y61.298 E58.65034
G1 X27.093 Y61.215 E58.6619
G1 X100.089 Y61.215 E59.5773
G1 X101.013 Y61.298 E59.58893
G1 X101.934 Y61.576 E59.60099
G1 X102.781 Y62.036 E59.61308
G1 X103.463 Y62.597 E59.62415
G1 X104.093 Y63.363 E59.63659
G1 X104.526 Y64.181 E59.6482
G1 X104.798 Y65.095 E59.66016
G1 X104.876 Y65.999 E59.67154
G1 X104.867 Y149.181 E60.71467
G1 X104.786 Y149.961 E60.7245
G1 X104.506 Y150.865 E60.73637
G1 X104.058 Y151.692 E60.74817
G1 X103.465 Y152.406 E60.75981
G1 X102.741 Y152.977 E60.77137
G1 X101.953 Y153.419 E60.7827
G1 X101.007 Y153.702 E60.79508
G1 X100.089 Y153.785 E60.80664
G1 X26.907 Y153.776 E61.72437
G1 X26.138 Y153.695 E61.73407
G1 X25.283 Y153.439 E61.74526
G1 X24.404 Y152.966 E61.75778
G1 X23.716 Y152.399 E61.76896
G1 X23.089 Y151.636 E61.78134
